symbols/web/replay/materialsymbolsoutlined/replay_wght300gradN25_40px.svg

<svg xmlns="http://www.w3.org/2000/svg" height="40" width="40"><path d="M20 35.625q-2.917 0-5.458-1.083-2.542-1.084-4.438-2.98-1.896-1.895-3-4.458Q6 24.542 6 21.667h2q0 4.958 3.5 8.458t8.5 3.5q5 0 8.5-3.479t3.5-8.521q0-4.958-3.458-8.458-3.459-3.5-8.417-3.5h-.833l2.875 2.875-1.417 1.375-5.292-5.292 5.334-5.333 1.416 1.375-3 3H20q2.917 0 5.458 1.104 2.542 1.104 4.438 3t3 4.437Q34 18.75 34 21.625q0 2.917-1.104 5.479-1.104 2.563-3 4.458-1.896 1.896-4.438 2.98-2.541 1.083-5.458 1.083Z"/></svg>

<svg xmlns="http://www.w3.org/2000/svg" height="40" width="40"><path d="M20 35.625Q17.083 35.625 14.542 34.542Q12 33.458 10.104 31.562Q8.208 29.667 7.104 27.104Q6 24.542 6 21.667H8Q8 26.625 11.5 30.125Q15 33.625 20 33.625Q25 33.625 28.5 30.146Q32 26.667 32 21.625Q32 16.667 28.542 13.167Q25.083 9.667 20.125 9.667H19.292L22.167 12.542L20.75 13.917L15.458 8.625L20.792 3.292L22.208 4.667L19.208 7.667H20Q22.917 7.667 25.458 8.771Q28 9.875 29.896 11.771Q31.792 13.667 32.896 16.208Q34 18.75 34 21.625Q34 24.542 32.896 27.104Q31.792 29.667 29.896 31.562Q28 33.458 25.458 34.542Q22.917 35.625 20 35.625Z"/></svg>
